!!!!SEGMENT: pl-cz--iii-115--004_dankowski-adalbert--missa-es-sanctus.krn
!!!cenid: 18xx:825
!!!COM: Dankowski, Adalbert
!!!COM-rismID: pe30000793
!!!CDT: ~1760-~1836
!!!CNT: Polish
!!!OPR: Missa Es
!!!OTL: Sanctus
!!!OMV: 004
!!!PDT: 1802
!!!AGN: Sacred; Vespers
!!!SMS-siglum: PL-CZ
!!!SMS-shelfmark: III-115
!!!SMS-shelfwork: 001-004 M
!!!SMS-variant:
!!!SMS-altvar:
!!!NIFC-rismSourceID: 300000112
!!!NIFC-rismChildID: 300000112
!!!NIFC-islandoraID: pl-cz:34553
!!!URL-pdf-islandora: https://repozytorium.nifc.pl/islandora/object/pl-cz%3A34553/datastream/PDF/view
!!!URL-scan: https://polish.musicsources.pl/pl/lokalizacje/galeria/rekopisy/6832/1 @EN{Scan on Polish Music Sources Website} @PL{Skany w portalu Dziedzictwo Muzyki Polskiej w otwartym dostępie}
!!!ONB-nifc: UWAGA: części Mszy: Kyrie, Gloria, Credo, Sanctus, Benedictus, Agnus Dei. Uwaga: brak partii cor 1 i 2
!!!AIN: 1 alto 1 bass 2 clars 1 organ 1 soprn 1 tenor 2 violn
!!!key: E-
**kern	**fba	**kern	**kern	**kern	**text	**kern	**text	**kern	**text	**kern	**text	**kern	**kern
*part9	*	*part8	*part7	*part6	*part6	*part5	*part5	*part4	*part4	*part3	*part3	*part2	*part1
*group4	*	*group3	*group3	*group2	*group2	*group2	*group2	*group2	*group2	*group2	*group2	*group1	*group1
*staff9	*	*staff8	*staff7	*staff6	*staff6	*staff5	*staff5	*staff4	*staff4	*staff3	*staff3	*staff2	*staff1
*I"Organo.	*	*I"Violino Secundo.	*I"Violino Primo.	*I"Basso	*	*I"Tenore	*	*I"Alto	*	*I"Canto	*	*I"Clarinetto Secundo in B.	*I"Clarinetto Primo in B
*I'org	*	*I'vl 2	*I'vl 1	*I'B	*	*I'T	*	*I'A	*	*I'S	*	*I'cl 2	*I'cl 1
*Iorgan	*	*Ivioln	*Ivioln	*Ibass	*	*Itenor	*	*Ialto	*	*Isoprn	*	*Iclars	*Iclars
*ICklav	*	*ICstr	*ICstr	*ICvox	*	*ICvox	*	*ICvox	*	*ICvox	*	*ICww	*ICww
*clefF4	*	*clefG2	*clefG2	*clefF4	*	*clefC4	*	*clefC3	*	*clefC1	*	*clefG2	*clefG2
*	*	*	*	*	*	*	*	*	*	*	*	*ITrd1c2	*ITrd1c2
*k[b-e-a-]	*	*k[e-b-a-]	*k[b-e-a-]	*k[b-e-a-]	*	*k[b-e-a-]	*	*k[b-e-a-]	*	*k[]	*	*k[b-e-a-]	*k[b-e-a-]
*E-:	*	*E-:	*E-:	*E-:	*	*E-:	*	*E-:	*	*E-:	*	*E-:	*E-:
*M2/4	*	*M2/4	*M2/4	*M2/4	*	*M2/4	*	*M2/4	*	*M2/4	*	*M2/4	*M2/4
=1	=1	=1	=1	=1	=1	=1	=1	=1	=1	=1	=1	=1	=1
*2\right	*	*2\right	*2\right	*2\right	*2\right	*2\right	*2\right	*2\right	*2\right	*2\right	*2\right	*2\right	*2\right
*tremolo	*	*	*	*	*	*	*	*	*	*	*	*	*
!LO:TX:t=P:znaki:problem= D- F- C-	!	!	!	!LO:TX:t=P:znaki:problem= F- A- E-	!	!LO:TX:t=P:znaki:problem= G- c- F-	!	!LO:TX:a:t=Adagio	!	!	!	!	!
!LO:TX:a:t=Adagio.	!	!LO:TX:a:t=Adagio	!LO:TX:a:t=Adagio	!LO:TX:a:t=Adagio	!	!LO:TX:a:t=Adagio	!	!	!	!LO:TX:b:t=Adagio	!	!LO:TX:a:t=Adagio	!LO:TX:a:t=Adagio
!LO:TX:a:t=Tutti	!	!	!	!	!	!	!	!	!	!LO:SIC:v:s=4ee-\	!	!	!
8E-\L	.	8e-/L	16e-/LL	4E-\	San-	4B-\	San-	4g\	San-	4ee\	San-	4ee-\	4gg\
.	.	.	16g/	.	.	.	.	.	.	.	.	.	.
8E-\	.	16g/L	16b-/	.	.	.	.	.	.	.	.	.	.
.	.	16g/JJ	16b-/JJ	.	.	.	.	.	.	.	.	.	.
!	!	!	!	!	!	!	!	!	!	!LO:SIC:v:s=8ee-\	!	!	!
8E-\	.	(16a-/LL	16cc\LL	8E-\L	-ctus	8B-\	-ctus	8g\L	-ctus	8ee\	-ctus	4r	4r
.	.	16g/	16b-\	.	.	.	.	.	.	.	.	.	.
*	*	*	*	*	*ij	*	*ij	*	*ij	*	*ij	*	*
!	!	!	!	!	!	!	!	!	!	!LO:SIC:v:s=8ee-\	!	!	!
8E-\J	.	16f/	16a-\	8E-\J	San-	8B-\	San-	8g\J	San-	8ee\	San-	.	.
.	.	16e-/JJ)	16g\JJ	.	.	.	.	.	.	.	.	.	.
=2	=2	=2	=2	=2	=2	=2	=2	=2	=2	=2	=2	=2	=2
*	*	*	*	*	*	*	*	*	*	*	*	*	*
!LO:TX:a:t=P:problem=mixed beam	!	!	!	!	!	!	!	!	!	!	!	!	!
8B-\L	.	16e-/LL	16g/LL	8B-\L	.	8B-\	.	8f\L	.	8dd\	.	(16dd\LL	16ff\LL
.	.	16d/J	16f/J	.	.	.	.	.	.	.	.	16ee-\)	16gg\
8BB-/J	.	8d/J	8f/J	8B-\J	-ctus	8B-\	-ctus	8f\J	-ctus	8dd\	-ctus	16ff'\	16aa-\
.	.	.	.	.	.	.	.	.	.	.	.	16ff'\JJ	16aa-\JJ
4r	.	4r	4r	4r	.	4r	.	4r	.	4r	.	16ff\LL	(16aa-\LL
.	.	.	.	.	.	.	.	.	.	.	.	16ee-\	16gg\
.	.	.	.	.	.	.	.	.	.	.	.	16dd\	16ff\
.	.	.	.	.	.	.	.	.	.	.	.	16ee-\JJ	16gg\JJ)
=3	=3	=3	=3	=3	=3	=3	=3	=3	=3	=3	=3	=3	=3
*	*	*tremolo	*	*	*	*	*	*	*	*	*	*	*
8BB-/L	.	8f/L	16f/LL	4D\	San-	4B-\	San-	4f\	San-	4dd\	San-	4dd\	4ff\
.	.	.	16a-/	.	.	.	.	.	.	.	.	.	.
8D/	.	8f/	16b-/	.	.	.	.	.	.	.	.	.	.
.	.	.	16b-/JJ	.	.	.	.	.	.	.	.	.	.
8D/	.	8f/	16b-\LL	8D\	-ctus	8B-\	-ctus	8f\	-ctus	8dd\	-ctus	4r	4r
*	*	*	*	*	*Xij	*	*Xij	*	*Xij	*	*Xij	*	*
.	.	.	16cc\	.	.	.	.	.	.	.	.	.	.
8D/J	.	8f/J	16b-\	8D\	Do-	8B-\	.	8f\	Do-	8dd\	Do-	.	.
.	.	.	16a-\JJ	.	.	.	.	.	.	.	.	.	.
*	*	*Xtremolo	*	*	*	*	*	*	*	*	*	*	*
=4	=4	=4	=4	=4	=4	=4	=4	=4	=4	=4	=4	=4	=4
!LO:TX:a:t=P:problem=mixed beam	!	!	!	!	!	!	!	!	!	!LO:SIC:v:s=16ee-\	!	!	!
8E-\L	.	16f/LL	16a-/LL	16E-\	.	16B-\	.	16g\	.	16ee\	.	(16ee-\LL	(16gg\LL
!	!	!	!	!	!	!	!	!	!	!LO:SIC:v:s=16ee-\	!	!	!
.	.	16e-/J	16g/J	16E-\	-mi-	16B-\	.	16g\	-mi-	16ee\	-mi-	16ff\)	16aa-\)
!	!	!	!	!	!	!	!	!	!	!LO:SIC:v:s=4ee-\	!	!	!
8EE-/J	.	8e-/J	8g/J	8E-\	-nus	8B-\	.	8g\	-nus	8ee\	-nus	16gg'\	16bb-\
.	.	.	.	.	.	.	.	.	.	.	.	16gg'\JJ	16bb-\JJ
4r	.	4r	4r	4r	.	4r	.	4r	.	4r	.	(16gg\LL	16bb-\LL
.	.	.	.	.	.	.	.	.	.	.	.	16ff\	(16aa-\
.	.	.	.	.	.	.	.	.	.	.	.	16ee-\	16gg\
.	.	.	.	.	.	.	.	.	.	.	.	16ff\JJ)	16aa-\JJ)
!	!	!	!LO:LB:g=original	!	!	!	!	!	!	!	!	!	!
=5	=5	=5	=5	=5	=5	=5	=5	=5	=5	=5	=5	=5	=5
!	!	!	!	!	!	!	!	!	!	!	!	!	!LO:N:vis=2.
8E-\L	.	16e-/LL	(16g/LL	4e-\	De-	4e-\	Do-	4b-\	De-	4gg\	De-	4ee-\	2gg\
.	.	16f/	16a-/)	.	.	.	.	.	.	.	.	.	.
8E-\	.	16g/	16b-|/	.	.	.	.	.	.	.	.	.	.
!	!	!LO:SIC:v:s=16g/JJ	!	!	!	!	!	!	!	!	!	!	!
.	.	16a-/JJ	16b-|/JJ	.	.	.	.	.	.	.	.	.	.
8E-\	.	16a-/LL	(16cc/LL	4e-\	-us	4e-\	-mi-	4b-\	-us	4gg\	-us	4b-\	.
.	.	16g/	16b-/)	.	.	.	.	.	.	.	.	.	.
8E-\J	.	16f/	16a-|/	.	.	.	.	.	.	.	.	.	.
.	.	16e-/JJ	16g|/JJ	.	.	.	.	.	.	.	.	.	.
!	!	!LO:LB:g=original	!	!	!	!	!	!LO:LB:g=original	!	!	!	!	!LO:LB:g=original
=6	=6	=6	=6	=6	=6	=6	=6	=6	=6	=6	=6	=6	=6
!	!	!	!	!	!	!	!	!	!	!	!	!	!LO:N:vis=2.
8D\L	6	8f/L	(16f/LL	4d\	Sa-	4f\	-nus	4b-\	Sa-	4ff\	Sa-	2b-\	2ff\
.	.	.	16a-/)	.	.	.	.	.	.	.	.	.	.
8D\	.	8f/	16b-|/	.	.	.	.	.	.	.	.	.	.
.	.	.	16b-|/JJ	.	.	.	.	.	.	.	.	.	.
8D\	.	8f/	(16b-\LL	8d\L	-ba-	8f\L	.	8b-\	-ba-	8ff\	-ba-	.	.
.	.	.	16cc\)	.	.	.	.	.	.	.	.	.	.
!	!	!	!	!	!LO:MO:mod=-oth	!	!	!	!LO:MO:mod=-oth	!	!LO:MO:mod=-oth	!	!
8D\J	.	8f/J	16b-\	8d\J	-olh	8f\J	.	8b-\	-olh	8ff\	-olh	.	.
.	.	.	16a-\JJ	.	.	.	.	.	.	.	.	.	.
=7	=7	=7	=7	=7	=7	=7	=7	=7	=7	=7	=7	=7	=7
*	*	*	*	*	*	*	*	*	*ij	*	*ij	*	*
!	!	!	!	!	!	!	!	!	!	!LO:SIC:v:s=2ee-\	!	!	!LO:N:vis=2.
8C/L	7	8e-/L	16g/LL	2c\	.	4g\	De-	4b-\	Sa-	2ff\	Sa-	4b-\	2ee-\
.	.	.	16b-/	.	.	.	.	.	.	.	.	.	.
8C/	.	8e-/	16b-/	.	.	.	.	.	.	.	.	.	.
.	.	.	16b-/JJ	.	.	.	.	.	.	.	.	.	.
8C/	6\	8e-/	16an/LL	.	.	4f\	-us	4an\	-ba-	.	.	4a\	.
.	.	.	16a/	.	.	.	.	.	.	.	.	.	.
8C/J	.	8e-/J	16a/	.	.	.	.	.	.	.	.	.	.
.	.	.	16a/JJ	.	.	.	.	.	.	.	.	.	.
*Xtremolo	*	*	*	*	*	*	*	*	*	*	*	*	*
!	!	!	!	!	!	!LO:LB:g=original	!	!	!	!	!	!	!
=8	=8	=8	=8	=8	=8	=8	=8	=8	=8	=8	=8	=8	=8
*	*	*	*	*	*	*	*	*	*	*	*	*	*
!	!	!	!	!	!	!LO:N:vis=4	!	!	!LO:MO:mod=-oth	!	!LO:MO:mod=-baoth	!	!
8BB-/L	8	8d/L	8b-/L	4B-\	.	8f\	Saba-	4b-\	-olh	2dd\	-baolh	8b-\L	8dd\L
!	!	!	!	!	!	!	!LO:MO:mod=-oth	!	!	!	!	!	!
8BB-/J	.	8d/J	8b-/J	.	.	4f\	-olh	.	.	.	.	8b-\J	8dd\J
4BB-/	.	4d/	4b-/	4r	.	.	.	4r	.	.	.	4b-\	4dd\
.	.	.	.	.	.	8r	.	.	.	.	.	.	.
!	!	!	!	!	!	!LO:TX:b:t=Benedictus Tacet.	!	!LO:TX:b:t=Benedictus Tacet	!	!	!	!	!
==	==	==	==	==	==	==	==	==	==	==	==	==	==
*-	*-	*-	*-	*-	*-	*-	*-	*-	*-	*-	*-	*-	*-
!!!system-decoration: [g1][g2][g3]g4
!!!RDF**kern: | = vertical stroke
!!!ENC: Katarzyna Serwa
!!!END: 2022-01-16
!!!ENC: Anastazja Marusiak
!!!END: 2020-07-17
!!!YEC: Copyright 2022 Narodowy Instytut Fryderyka Chopina (https://polishscores.org)
!!!YEM: License CC-BY-4.0 (https://creativecommons.org/licenses/by/4.0)
